X:1
T:Title
%%score { ( 1 3 5 ) | ( 2 4 ) }
L:1/8
Q:1/4=100
M:4/4
K:G
V:1 treble nm="Grand Piano"
V:3 treble 
V:5 treble 
V:2 bass 
V:4 bass 
V:1
 G2- (3GDG B2 G2 | [Fd]4 [FA]4 | c2- (3cBA G2 G2 | A6 z2 | [B,G]2- (3[B,G][B,D][B,G] B2 G2 | %5
w: M.~L.~McPhail * * * * *|||||
 [Fd]4 [FA]4 | ^c2- (3cBA G2 z G, |[M:6/4] .D3 z/ F/ A2- A3 [Fc]3 |[M:4/4] D2 D2 (3z FA c>e | %9
w: ||||
 d4 z4 | z2 E2 (3z FG A>_B | B6 z2 | B6 z2 | e4 c4 | B6 z2[Q:1/4=94][Q:1/4=88][Q:1/4=81] | %15
w: ||||||
[M:9/8] G6- G z z |] %16
w: |
V:2
 [G,B,]2- (3[G,B,][G,B,][G,B,] [G,D]2 [G,B,]2 | [D,A,]4 [D,D]4 | %2
 [D,F,D]2- (3[D,F,D][E,G,D][F,A,D] [G,B,D]2 [E,A,^C]2 | [D,F,C]6 z2 | %4
 [G,,G,]2- (3[G,,G,][G,,G,][G,,G,] [G,D]2 [G,B,]2 | [D,A,]4 [D,D]4 | %6
 [A,EG]2- (3[A,EG][A,DG][A,^CG] [A,CE]2[K:bass] .[A,,A,]2 |[M:6/4] [D,F,]6- [D,F,]3 [D,D]3 | %8
[M:4/4] [D,F,]2 [D,F,]2 [D,F,]2 [D,C]2 | [G,B,G]2 [G,B,]2[K:bass] [G,B,]2 [G,B,]2 | %10
 [E,B,]2 [E,B,]2 [E,B,]2 [C,E,]2 | [B,,F,]2 [B,,F,]2 [B,,F,]2 z2 | %12
 [G,,G,]2 G,2 (3z[K:treble] AB z z/ d/ | [C,C]2 C,2 A,,2 A,,A,, | [D,D]2 [D,D]2 [D,D]2 [D,CD]2 | %15
[M:9/8] [G,,G,]2 [G,,G,]- [G,,G,] [G,,G,]2- [G,,G,] z z |] %16
V:3
 x8 | x8 | x8 | z2 D>D E2 F2 | x8 | x8 | z4 z2 [^CE]2 |[M:6/4] z2 D4- D3 z z2 |[M:4/4] z4 D2 F2 | %9
 z2 z B G2 G2 | G6 z2 | ^D2 D2 D2 z2 | D2 [DG]2 [DG]2 [CGc]2 | G2 [CG]2 [EG]2 [EG][EGc] | %14
 G2 G2 (3z AG d>F |[M:9/8] [B,D]2 [CE]- [CE] [B,D]2- [B,D] z z |] %16
V:4
 x8 | x8 | x8 | z2 C,>C, B,,2 A,,2 | x8 | x8 | x6[K:bass] x2 |[M:6/4] x12 |[M:4/4] x8 | %9
 x4[K:bass] x4 | x8 | x8 | z4 =F,2[K:treble] E,2 | x8 | x8 |[M:9/8] x9 |] %16
V:5
 x8 | x8 | x8 | x8 | x8 | x8 | x8 |[M:6/4] x12 |[M:4/4] x8 | z2 G2 z4 | z4 E2 E2 | x8 | x8 | x8 | %14
 z4 F2 z2 |[M:9/8] x9 |] %16

